X:196
T:Music In The Glen
R:reel
M:4/4
L:1/8
K:Gmaj
|:G2BG EGDC|B,DGB AGAB|c2ec BcdB|cABG AGED|
GABG EGDC|B,DGB AGAB|cdef g2ge|dBAB G2|D2:|
|:B/2A/2G dG eGdG|BGdB cAAA|B/2A/2GBd edef|gdBG AGEG|
BGBd edef|g2fg afdf|g2fg egdB cABG AGEG:||

